src/pages/elements/pictograms/images/11_Gradients_7_dont.svg

<?xml version="1.0" encoding="UTF-8"?>
<svg width="288px" height="288px" viewBox="0 0 288 288" version="1.1" xmlns="http://www.w3.org/2000/svg" xmlns:xlink="http://www.w3.org/1999/xlink">
    <!-- Generator: Sketch 52.5 (67469) - http://www.bohemiancoding.com/sketch -->
    <title>Artboard Copy 79</title>
    <desc>Created with Sketch.</desc>
    <defs>
        <linearGradient x1="102.064932%" y1="-2.2275189%" x2="-2.04197717%" y2="102.042142%" id="linearGradient-1">
            <stop stop-color="#20D5D2" offset="0%"></stop>
            <stop stop-color="#BB8EFF" offset="53.2627348%"></stop>
            <stop stop-color="#0062FF" offset="100%"></stop>
        </linearGradient>
    </defs>
    <g id="Artboard-Copy-79" stroke="none" stroke-width="1" fill="none" fill-rule="evenodd">
        <rect id="Rectangle-3-Copy-45" fill="#FFFFFF" x="0" y="0" width="288" height="288"></rect>
        <g id="Group-4-Copy-12" transform="translate(52.000000, 52.000000)">
            <polygon id="Fill-1" fill="#FFFFFF" points="0 184 184 184 184 0 0 0"></polygon>
            <path d="M89.93,36.57 L94.07,36.57 L94.07,15.17425 L89.93,15.17425 L89.93,36.57 Z M61.364,43.079 L51.796,26.50175 L55.384,24.43175 L64.94625,41.009 L61.364,43.079 Z M119.3125,48.829 L115.73025,46.759 L128.616,24.43175 L132.204,26.50175 L119.3125,48.829 Z M38.134,63.296 L24.4375,55.384 L26.5075,51.796 L40.204,59.708 L38.134,63.296 Z M15.18,94.07 L27.945,94.07 L27.945,89.92425 L15.18,89.92425 L15.18,94.07 Z M141.68,94.07 L168.82,94.07 L168.82,89.92425 L141.68,89.92425 L141.68,94.07 Z M91.241,94.829 L89.171,91.241 L157.4925,51.796 L159.5625,55.384 L91.241,94.829 Z M26.5075,132.204 L24.4375,128.616 L33.005,123.671 L35.075,127.259 L26.5075,132.204 Z M157.4925,132.204 L131.48525,117.19075 L133.55525,113.60275 L159.5625,128.616 L157.4925,132.204 Z M92,7.82 C45.58025,7.82 7.82,45.586 7.82,92 C7.82,138.414 45.58025,176.18 92,176.18 C138.41975,176.18 176.18,138.414 176.18,92 C176.18,45.586 138.41975,7.82 92,7.82 Z M92,180.32 C43.2975,180.32 3.68,140.7025 3.68,92 C3.68,43.2975 43.2975,3.68 92,3.68 C140.7025,3.68 180.32,43.2975 180.32,92 C180.32,140.7025 140.7025,180.32 92,180.32 Z" id="Fill-2" fill="url(#linearGradient-1)"></path>
        </g>
    </g>
</svg>

<svg xmlns="http://www.w3.org/2000/svg" viewBox="0 0 288 288"><defs><linearGradient x1="102.065%" y1="-2.228%" x2="-2.042%" y2="102.042%" id="a"><stop stop-color="#20D5D2" offset="0%"/><stop stop-color="#BB8EFF" offset="53.263%"/><stop stop-color="#0062FF" offset="100%"/></linearGradient></defs><g fill="none" fill-rule="evenodd"><path fill="#FFF" d="M0 0h288v288H0z"/><path fill="#FFF" d="M52 236h184V52H52z"/><path d="M89.93 36.57h4.14V15.174h-4.14V36.57zm-28.566 6.509l-9.568-16.577 3.588-2.07 9.562 16.577-3.582 2.07zm57.949 5.75l-3.583-2.07 12.886-22.327 3.588 2.07-12.892 22.327zm-81.18 14.467l-13.697-7.912 2.07-3.588 13.697 7.912-2.07 3.588zM15.18 94.07h12.765v-4.146H15.18v4.146zm126.5 0h27.14v-4.146h-27.14v4.146zm-50.439.759l-2.07-3.588 68.322-39.445 2.07 3.588L91.24 94.829zm-64.733 37.375l-2.07-3.588 8.567-4.945 2.07 3.588-8.568 4.945zm130.985 0l-26.008-15.013 2.07-3.588 26.007 15.013-2.07 3.588zM92 7.82C45.58 7.82 7.82 45.586 7.82 92c0 46.414 37.76 84.18 84.18 84.18 46.42 0 84.18-37.766 84.18-84.18 0-46.414-37.76-84.18-84.18-84.18zm0 172.5c-48.703 0-88.32-39.618-88.32-88.32C3.68 43.297 43.297 3.68 92 3.68c48.702 0 88.32 39.617 88.32 88.32 0 48.702-39.618 88.32-88.32 88.32z" fill="url(#a)" transform="translate(52 52)"/></g></svg>
